X: 65
T:Cibi
M:2/4
L:1/16
C:Marc Peroneille
R:Polka
Z:Steve Mansfield
K:C
cBce g2e2 | defd e2c2 | cBce g2e2 | defd c4 :|
|: BcdB ceBc | dBcd c2G2 | BcdB ceBc | dBcd c4 :|

